img/telegram.svg

<svg width="30" height="30" viewBox="0 0 30 30" fill="none" xmlns="http://www.w3.org/2000/svg">
<circle cx="15" cy="15" r="14.75" stroke="#039BE5" stroke-width="0.5"/>
<g clip-path="url(#clip0)">
<path d="M12.2781 18.1206L12.0135 21.8433C12.3921 21.8433 12.5561 21.6806 12.7528 21.4853L14.5281 19.7886L18.2068 22.4826C18.8815 22.8586 19.3568 22.6606 19.5388 21.8619L21.9535 10.5473L21.9541 10.5466C22.1681 9.54928 21.5935 9.15928 20.9361 9.40394L6.74279 14.8379C5.77412 15.2139 5.78879 15.7539 6.57812 15.9986L10.2068 17.1273L18.6355 11.8533C19.0321 11.5906 19.3928 11.7359 19.0961 11.9986L12.2781 18.1206Z" fill="#039BE5"/>
</g>
<defs>
<clipPath id="clip0">
<rect width="16" height="16" fill="white" transform="translate(6 8)"/>
</clipPath>
</defs>
</svg>

<svg width="30" height="30" viewBox="0 0 30 30" fill="none" xmlns="http://www.w3.org/2000/svg"><circle cx="15" cy="15" r="14.75" stroke="#039BE5" stroke-width=".5"/><g clip-path="url(#clip0)"><path d="M12.278 18.12l-.264 3.723c.378 0 .542-.162.739-.358l1.775-1.696 3.679 2.694c.674.376 1.15.178 1.332-.621l2.414-11.315h.001c.214-.998-.36-1.388-1.018-1.143L6.743 14.838c-.969.376-.954.916-.165 1.16l3.629 1.13 8.428-5.275c.397-.262.758-.117.461.146l-6.818 6.122z" fill="#039BE5"/></g><defs><clipPath id="clip0"><path fill="#fff" transform="translate(6 8)" d="M0 0h16v16H0z"/></clipPath></defs></svg>
